app/image/arrow.svg

<svg xmlns="http://www.w3.org/2000/svg" width="24" height="24" viewBox="0 0 24 24">
  <path fill="#001d2f" fill-rule="evenodd" d="M12.7071068,4.29289322 C13.0675907,4.65337718 13.0953203,5.22060824 12.7902954,5.61289944 L12.7071068,5.70710678 L7.415,11 L19,11 C19.5522847,11 20,11.4477153 20,12 C20,12.5128358 19.6139598,12.9355072 19.1166211,12.9932723 L19,13 L7.415,13 L12.7071068,18.2928932 C13.0675907,18.6533772 13.0953203,19.2206082 12.7902954,19.6128994 L12.7071068,19.7071068 C12.3466228,20.0675907 11.7793918,20.0953203 11.3871006,19.7902954 L11.2928932,19.7071068 L4.29289322,12.7071068 L4.21968877,12.625449 C4.2173721,12.6225624 4.21507113,12.6196628 4.21278596,12.6167501 L4.29289322,12.7071068 C4.25749917,12.6717127 4.22531295,12.6343256 4.19633458,12.5953066 C4.17849009,12.5711307 4.1617187,12.546275 4.14606743,12.5206602 C4.13860692,12.5086131 4.13149883,12.4963944 4.12467117,12.4840621 C4.11379392,12.4642939 4.10337664,12.4438914 4.09365378,12.4230991 C4.08567905,12.4060985 4.07819642,12.3887956 4.07122549,12.371336 C4.06331574,12.3515792 4.05612249,12.3317977 4.04954668,12.3117364 C4.04472872,12.2968513 4.04009773,12.2814633 4.03584514,12.265993 C4.02983363,12.2444365 4.0246398,12.2227461 4.02016515,12.2007941 C4.01670217,12.1833753 4.01362808,12.165949 4.0110178,12.1484669 C4.00810098,12.1294204 4.00574796,12.1096949 4.00397748,12.0898018 C4.00189498,12.0659949 4.00063489,12.042681 4.00018615,12.0193545 C4.00006128,12.0129086 4,12.0064615 4,12 L4.00016755,11.9816379 C4.00059932,11.9579802 4.0018656,11.9343349 4.00396641,11.9107499 L4,12 C4,11.9493797 4.00376119,11.8996379 4.01101934,11.8510388 C4.01362808,11.834051 4.01670217,11.8166247 4.02024007,11.7992742 C4.0246398,11.7772539 4.02983363,11.7555635 4.03572097,11.7341604 C4.04009773,11.7185367 4.04472872,11.7031487 4.04973809,11.6878575 C4.05612249,11.6682023 4.06331574,11.6484208 4.07110396,11.6289415 C4.07819642,11.6112044 4.08567905,11.5939015 4.09367336,11.5767785 C4.10337664,11.5561086 4.11379392,11.5357061 4.12487577,11.515723 C4.13149883,11.5036056 4.13860692,11.4913869 4.14599545,11.4792912 C4.1617187,11.453725 4.17849009,11.4288693 4.19631351,11.4048407 C4.20071786,11.3987914 4.20517454,11.3929267 4.20970461,11.3871006 C4.23766884,11.3515341 4.26442691,11.3213595 4.29289322,11.2928932 L11.2928932,4.29289322 C11.6834175,3.90236893 12.3165825,3.90236893 12.7071068,4.29289322 Z" transform="rotate(90 12 12)"/>
</svg>

<svg version="1.1" xmlns="http://www.w3.org/2000/svg" xmlns:xlink="http://www.w3.org/1999/xlink" width="24" height="24" viewBox="0,0,256,256"><g fill="#ffffff" fill-rule="evenodd" stroke="none" stroke-width="1" stroke-linecap="butt" stroke-linejoin="miter" stroke-miterlimit="10" stroke-dasharray="" stroke-dashoffset="0" font-family="none" font-weight="none" font-size="none" text-anchor="none" style="mix-blend-mode: normal"><g transform="translate(0,0) scale(10.66667,10.66667)"><path transform="translate(24,0) rotate(90)" d="M12.70711,4.29289c0.36048,0.36048 0.38821,0.92772 0.08319,1.32001l-0.08319,0.09421l-5.29211,5.29289h11.585c0.55228,0 1,0.44772 1,1c0,0.51284 -0.38604,0.93551 -0.88338,0.99327l-0.11662,0.00673h-11.585l5.29211,5.29289c0.36048,0.36048 0.38821,0.92771 0.08319,1.32001l-0.08319,0.09421c-0.36048,0.36048 -0.92771,0.38821 -1.32001,0.08319l-0.09421,-0.08319l-7,-7l-0.0732,-0.08166c-0.00232,-0.00289 -0.00462,-0.00579 -0.0069,-0.0087l0.08011,0.09036c-0.03539,-0.03539 -0.06758,-0.07278 -0.09656,-0.1118c-0.01784,-0.02418 -0.03462,-0.04903 -0.05027,-0.07465c-0.00746,-0.01205 -0.01457,-0.02427 -0.0214,-0.0366c-0.01088,-0.01977 -0.02129,-0.04017 -0.03102,-0.06096c-0.00797,-0.017 -0.01546,-0.0343 -0.02243,-0.05176c-0.00791,-0.01976 -0.0151,-0.03954 -0.02168,-0.0596c-0.00482,-0.01489 -0.00945,-0.03027 -0.0137,-0.04574c-0.00601,-0.02156 -0.01121,-0.04325 -0.01568,-0.0652c-0.00346,-0.01742 -0.00654,-0.03485 -0.00915,-0.05233c-0.00292,-0.01905 -0.00527,-0.03877 -0.00704,-0.05867c-0.00208,-0.02381 -0.00334,-0.04712 -0.00379,-0.07045c-0.00012,-0.00645 -0.00019,-0.01289 -0.00019,-0.01935l0.00017,-0.01836c0.00043,-0.02366 0.0017,-0.0473 0.0038,-0.07089l-0.00397,0.08925c0,-0.05062 0.00376,-0.10036 0.01102,-0.14896c0.00261,-0.01699 0.00568,-0.03441 0.00922,-0.05176c0.0044,-0.02202 0.00959,-0.04371 0.01548,-0.06511c0.00438,-0.01562 0.00901,-0.03101 0.01402,-0.0463c0.00638,-0.01966 0.01358,-0.03944 0.02137,-0.05892c0.00709,-0.01774 0.01458,-0.03504 0.02257,-0.05216c0.0097,-0.02067 0.02012,-0.04107 0.0312,-0.06106c0.00662,-0.01212 0.01373,-0.02434 0.02112,-0.03643c0.01572,-0.02557 0.03249,-0.05042 0.05032,-0.07445c0.0044,-0.00605 0.00886,-0.01191 0.01339,-0.01774c0.02796,-0.03557 0.05472,-0.06574 0.08319,-0.09421l7,-7c0.39052,-0.39052 1.02369,-0.39052 1.41421,0z"></path></g></g></svg>
